src/actions/22/transform-shear-left.svg

<svg xmlns="http://www.w3.org/2000/svg" viewBox="0 0 22 22">
    <path d="M3 3v10h3v-1H4V4h11v4h1V3H3zm4 6 .1 1 .9 9h11l-.1-1-.9-9H7zm1.1 1h9l.8 8h-9l-.8-8z" style="fill:currentColor;fill-opacity:1;stroke:none;color:#050505;opacity:.7"/>
</svg>

<svg xmlns="http://www.w3.org/2000/svg" viewBox="0 0 22 22">
  <defs id="defs3051">
    <style type="text/css" id="current-color-scheme">
      .ColorScheme-Text {
        color:#363636;
      }
      </style>
  </defs>
 <path 
    style="fill:currentColor;fill-opacity:1;stroke:none" 
     d="M 3 3 L 3 12 L 3 13 L 4 13 L 6 13 L 6 12 L 4 12 L 4 4 L 15 4 L 15 8 L 16 8 L 16 3 L 15 3 L 4 3 L 3 3 z M 7 9 L 7.0996094 10 L 8 19 L 9 19 L 18 19 L 19 19 L 18.900391 18 L 18 9 L 17 9 L 8 9 L 7 9 z M 8.0996094 10 L 17.099609 10 L 17.900391 18 L 8.9003906 18 L 8.0996094 10 z "
	class="ColorScheme-Text"
    />  
</svg>
